X: 10301
Q: "Slow."
M: 6/8
L: 1/8
K: A
[|\
EAA (A>B)c | {c}B>AG Bd2 | e<ee (d<e)g | e>d (c/B/) A3 |\
EAA A>Bc | {c}B>AG Bd2 | eee deg | e>d (c/B/) A2 |]
(B/A/) |\
d>e^f g>ab | {c}B>AG Bd2 | efe d>eg | e>d (c/B/) A3 |]


